!!!OTL: GUTER FREUND ICH FRAGE DICH
!!!ARE: Europa, Mitteleuropa, Deutschland, Eifel, Ingenbruch
!!!SCT: E2131A
!!!YEM: Copyright 1995, estate of Helmut Schaffrath.
**kern
*ICvox
*Ivox
*M4/4
*k[f#]
*G:
=1
{4.g
8a
4b
4b
=2
4a
4a
4g
4r}
=3
{4.b
8cc
4dd
4dd
=4
4cc
4cc
4b
4r}
=5
{4.dd
8b
8dd
8cc
4b
=6
4a
8b
8cc
4b
4r}
=7
{4b
8b
8a
4b
4b
=8
4b
8b
8a
4b
4r}
=9
{4a
4b
2a
=10
4a
4b
4a}
{8g
8b
=11
4dd
4b
8a
8b
4cc
=12
2cc
4b
4r}
==
!!!AGN: geistliches Lied, Curiosum
!!!ONB: ESAC (Essen Associative Code) Database: ERK3
!!!AMT: simple quadruple
!!!AIN: vox
!!!EED: Helmut Schaffrath
!!!EEV: 1.0
*-
